Numix-GalliumOS/32/actions/zoom-fit-width.svg

<?xml version="1.0" encoding="UTF-8" standalone="no"?>
<svg
   xmlns:dc="http://purl.org/dc/elements/1.1/"
   xmlns:cc="http://creativecommons.org/ns#"
   xmlns:rdf="http://www.w3.org/1999/02/22-rdf-syntax-ns#"
   xmlns:svg="http://www.w3.org/2000/svg"
   xmlns="http://www.w3.org/2000/svg"
   xmlns:sodipodi="http://sodipodi.sourceforge.net/DTD/sodipodi-0.dtd"
   xmlns:inkscape="http://www.inkscape.org/namespaces/inkscape"
   width="32"
   height="32"
   viewBox="0 0 32 32"
   id="svg2"
   version="1.1"
   inkscape:version="0.91 r13725"
   sodipodi:docname="zoom-fit-width.svg">
  <metadata
     id="metadata16">
    <rdf:RDF>
      <cc:Work
         rdf:about="">
        <dc:format>image/svg+xml</dc:format>
        <dc:type
           rdf:resource="http://purl.org/dc/dcmitype/StillImage" />
        <dc:title></dc:title>
      </cc:Work>
    </rdf:RDF>
  </metadata>
  <defs
     id="defs14" />
  <sodipodi:namedview
     pagecolor="#ffffff"
     bordercolor="#666666"
     borderopacity="1"
     objecttolerance="10"
     gridtolerance="10"
     guidetolerance="10"
     inkscape:pageopacity="0"
     inkscape:pageshadow="2"
     inkscape:window-width="1366"
     inkscape:window-height="704"
     id="namedview12"
     showgrid="false"
     inkscape:zoom="22.627417"
     inkscape:cx="15.805584"
     inkscape:cy="18.936291"
     inkscape:window-x="0"
     inkscape:window-y="27"
     inkscape:window-maximized="1"
     inkscape:current-layer="svg2">
    <inkscape:grid
       type="xygrid"
       id="grid4144" />
  </sodipodi:namedview>
  <path
     style="fill:#268bd2"
     d="M 6.308594 2 L 25.691406 2 C 28.070312 2 30 3.929688 30 6.308594 L 30 25.691406 C 30 28.070312 28.070312 30 25.691406 30 L 6.308594 30 C 3.929688 30 2 28.070312 2 25.691406 L 2 6.308594 C 2 3.929688 3.929688 2 6.308594 2 Z "
     id="path4" />
  <g
     id="g4152">
    <g
       id="g6"
       style="fill-opacity:.902;fill:#fff">
      <path
         id="path10"
         d="M 10 10 L 10 22 L 22 22 L 22 10 Z M 12 12 L 20 12 L 20 20 L 12 20 Z " />
    </g>
    <rect
       y="6"
       x="6"
       height="20"
       width="2"
       id="rect4148"
       style="opacity:1;fill:#ffffff;fill-opacity:0.90196078;stroke:none;stroke-width:1.5;stroke-linecap:round;stroke-linejoin:round;stroke-miterlimit:4;stroke-dasharray:none;stroke-opacity:1" />
    <rect
       style="opacity:1;fill:#ffffff;fill-opacity:0.90196078;stroke:none;stroke-width:1.5;stroke-linecap:round;stroke-linejoin:round;stroke-miterlimit:4;stroke-dasharray:none;stroke-opacity:1"
       id="rect4150"
       width="2"
       height="20"
       x="24"
       y="6" />
  </g>
</svg>

<svg xmlns="http://www.w3.org/2000/svg" viewBox="0 0 32 32">
 <path d="m 6.309 2 l 19.383 0 c 2.379 0 4.309 1.93 4.309 4.309 l 0 19.383 c 0 2.379 -1.93 4.309 -4.309 4.309 l -19.383 0 c -2.379 0 -4.309 -1.93 -4.309 -4.309 l 0 -19.383 c 0 -2.379 1.93 -4.309 4.309 -4.309 Z" style="fill:#268bd2"/>
 <g>
  <g style="fill:#fff;fill-opacity:0.902">
   <path d="m 10 10 l 0 12 l 12 0 l 0 -12 m -10 2 l 8 0 l 0 8 l -8 0 Z"/>
  </g>
  <rect y="6" x="6" height="20" width="2" style="fill:#fff;opacity:1;fill-opacity:0.902;stroke:none"/>
  <rect width="2" height="20" x="24" y="6" style="fill:#fff;opacity:1;fill-opacity:0.902;stroke:none"/>
 </g>
</svg>
